src/22/mimetypes/application-msword.svg

<svg xmlns="http://www.w3.org/2000/svg" width="22" height="22"><path d="M5 3c-.554 0-1 .446-1 1v14c0 .554.446 1 1 1h12c.554 0 1-.446 1-1V4c0-.554-.446-1-1-1H5zm0 1h12v14H5V4zm1 2v1h10V6H6zm0 3v1h10V9H6zm0 3v1h10v-1H6zm0 3v1h10v-1H6z" fill="#4040bf"/></svg>

<?xml version="1.0" encoding="UTF-8" standalone="no"?>
<!-- Created with Inkscape (http://www.inkscape.org/) -->

<svg
   xmlns:dc="http://purl.org/dc/elements/1.1/"
   xmlns:cc="http://creativecommons.org/ns#"
   xmlns:rdf="http://www.w3.org/1999/02/22-rdf-syntax-ns#"
   xmlns:svg="http://www.w3.org/2000/svg"
   xmlns="http://www.w3.org/2000/svg"
   xmlns:sodipodi="http://sodipodi.sourceforge.net/DTD/sodipodi-0.dtd"
   xmlns:inkscape="http://www.inkscape.org/namespaces/inkscape"
   width="22"
   version="1.1"
   height="22"
   id="svg2"
   inkscape:version="0.91 r13725"
   sodipodi:docname="application-msword-template.svg">
  <sodipodi:namedview
     pagecolor="#ffffff"
     bordercolor="#666666"
     borderopacity="1"
     objecttolerance="10"
     gridtolerance="10"
     guidetolerance="10"
     inkscape:pageopacity="0"
     inkscape:pageshadow="2"
     inkscape:window-width="1360"
     inkscape:window-height="708"
     id="namedview14"
     showgrid="true"
     inkscape:zoom="15.170655"
     inkscape:cx="3.4476327"
     inkscape:cy="9.5120244"
     inkscape:window-x="0"
     inkscape:window-y="0"
     inkscape:window-maximized="1"
     inkscape:current-layer="word"
     inkscape:object-nodes="true">
    <inkscape:grid
       type="xygrid"
       id="grid4149" />
  </sodipodi:namedview>
  <defs
     id="defs3871" />
  <metadata
     id="metadata3874">
    <rdf:RDF>
      <cc:Work
         rdf:about="">
        <dc:format>image/svg+xml</dc:format>
        <dc:type
           rdf:resource="http://purl.org/dc/dcmitype/StillImage" />
      </cc:Work>
    </rdf:RDF>
  </metadata>
  <g
     inkscape:label="Capa 1"
     inkscape:groupmode="layer"
     id="layer1"
     transform="matrix(1 0 0 1 -326 -534.3622)">
    <rect
       width="0"
       x="326.49567"
       y="535.98694"
       height="10.999983"
       style="fill:#22a7f0"
       id="rect4035" />
    <rect
       width="0"
       x="321.94366"
       y="538.50604"
       height="10.999983"
       style="fill:#22a7f0"
       id="rect4035-7" />
    <rect
       width="0"
       x="317.43588"
       y="526.08746"
       height="10.999983"
       style="fill:#22a7f0"
       id="rect4035-9" />
    <rect
       width="0"
       x="318.27991"
       y="538.32489"
       height="10.999983"
       style="fill:#22a7f0"
       id="rect4035-96" />
    <rect
       width="0"
       x="313.72791"
       y="540.84399"
       height="10.999983"
       style="fill:#22a7f0"
       id="rect4035-7-0" />
    <rect
       width="0"
       x="309.22012"
       y="528.42542"
       height="10.999983"
       style="fill:#22a7f0"
       id="rect4035-9-6" />
    <g
       transform="matrix(0.2492145,0,0,0.2492145,331.51447,519.35784)"
       id="word">
      <path
         style="opacity:1;fill:#4040bf;fill-opacity:1;stroke:none;stroke-width:10;stroke-miterlimit:4;stroke-dasharray:none;stroke-opacity:1"
         d="M 5 3 C 4.4459998 3 4 3.4459998 4 4 L 4 18 C 4 18.554 4.4459998 19 5 19 L 17 19 C 17.554 19 18 18.554 18 18 L 18 4 C 18 3.4459998 17.554 3 17 3 L 5 3 z M 5 4 L 17 4 L 17 18 L 5 18 L 5 4 z M 6 6 L 6 7 L 16 7 L 16 6 L 6 6 z M 6 9 L 6 10 L 16 10 L 16 9 L 6 9 z M 6 12 L 6 13 L 16 13 L 16 12 L 6 12 z M 6 15 L 6 16 L 16 16 L 16 15 L 6 15 z "
         transform="matrix(4.0126076,0,0,4.0126076,-22.127404,60.206609)"
         id="rect4151" />
    </g>
  </g>
</svg>
